packages/components/src/components/icon/underlying/ic-underlying-OTC_GDAXI.svg

<?xml version="1.0" encoding="UTF-8"?>
<svg width="32px" height="32px" viewBox="0 0 32 32" version="1.1" xmlns="http://www.w3.org/2000/svg" xmlns:xlink="http://www.w3.org/1999/xlink">
    <!-- Generator: Sketch 64 (93537) - https://sketch.com -->
    <title>assets/otc/ic-otcgerman</title>
    <desc>Created with Sketch.</desc>
    <g id="assets/otc/ic-otcgerman" stroke="none" stroke-width="1" fill="none" fill-rule="evenodd">
        <g id="assets/otc/ic-otc">
            <g id="assets/flags/normal/ic-germany" transform="translate(4.000000, 8.000000)">
                <g id="Group" transform="translate(-0.000000, 0.000000)">
                    <path d="M0,11 L24,11 L24,14 C24,15.1045695 23.1045695,16 22,16 L2,16 C0.8954305,16 1.3527075e-16,15.1045695 0,14 L0,11 L0,11 Z" id="third" fill="#FFCD00" fill-rule="nonzero"></path>
                    <rect id="second" fill="#F10000" fill-rule="nonzero" x="0" y="5.00000002" width="24.0000001" height="6.00000003"></rect>
                    <path d="M2,0 L22,0 C23.1045695,-2.02906125e-16 24,0.8954305 24,2 L24,5 L24,5 L0,5 L0,2 C-1.3527075e-16,0.8954305 0.8954305,2.02906125e-16 2,0 Z" id="first" fill="#333333" fill-rule="nonzero"></path>
                    <rect id="border" stroke-opacity="0.04" stroke="#000000" fill-rule="nonzero" x="0.50000005" y="0.5" width="23" height="15" rx="1"></rect>
                </g>
            </g>
        </g>
    </g>
</svg>

<svg width="32" height="32" xmlns="http://www.w3.org/2000/svg"><g transform="translate(4 8)" fill-rule="nonzero" fill="none"><path d="M0 11h24v3a2 2 0 01-2 2H2a2 2 0 01-2-2v-3z" fill="#FFCD00"/><path fill="#F10000" d="M0 5h24v6H0z"/><path d="M2 0h20a2 2 0 012 2v3H0V2a2 2 0 012-2z" fill="#333"/><rect stroke-opacity=".04" stroke="#000" x=".5" y=".5" width="23" height="15" rx="1"/></g></svg>
